X:5093
T:Anita's Reel
M:4/4
R:Reel
L:1/8
Q:180
C:Aidan Crossey
K:G
GBdB gBdB|GBdB AcBA|GBdB gBdB|AcBA GDEF|
GBdB gBdB|GBdB AcBA|GBAc Bdce|dBcA G2 G2||
gdBG gdBd|egfe d2dB|c2ec B2dB|ABcd efga|
gdBG gdBd|egfe d2dB|c2ec B2dB|AGFA G4||
